X:1
T:Reflets
T:À Mr et Mme PAUL GENTIEN
T:Lili Boulanger
T:Reflets 
T:Maurice Maeterlinck
T:Creative Commons copyright waiver (CC0 1.0 Universal)
T:Creative Commons copyright waiver (CC0 1.0 Universal)
T:Creative Commons copyright waiver (CC0 1.0 Universal)
T:Creative Commons copyright waiver (CC0 1.0 Universal)
C:Lili Boulanger
Z:Maurice Maeterlinck
Z:Creative Commons copyright waiver (CC0 1.0 Universal)
%%score ( 1 2 ) { ( 3 6 ) | ( 4 5 7 ) }
L:1/8
Q:1/4=112
M:2/2
K:A
V:1 treble nm="Chant\nVoice"
V:2 treble 
V:3 treble nm="Piano"
V:6 treble 
V:4 bass 
V:5 bass 
V:7 bass 
V:1
"^Sans lenteur" z8 | z8 | z2!p! F2 F3 F | A4- A A!<(! !tenuto!G A!<)! |!>(! !tenuto!G8!>)! | %5
w: ||Sous l'eau du|son- * ge qui s'é-|\- lè-|
 F2 z2 z4 |"^espressif" z4!<(! (F4!<)! |!>(! !tenuto!B6 A2!>)! | !>!F8-) | %9
w: ve|Mon|âme a|peur,|
 F2 (E2!>(! !tenuto!F3!>)! D | !>!C8-) | C2 z2 z4 | z2 (=G G!<(! !tenuto!B3!<)! =c | %13
w: _ mon âme a|peur|_|Et la lu- ne|
 _e4- e !tenuto!=d2 =c | !tenuto!=B8- | =B2) z2 (=G4 | E8-) | E z (E =D E2 ^F ^G |!>(! E8!>)! | %19
w: luit _ dans mon|cœur|_ plon-|gé|_ dans les sour- ces du|rê-|
 C2) z2 z4 | z8 | z8 | z4 =F4- | (3F4 =F4 F4 |!<(! ^F8- |!>(! F2!>)! F2 G2 F2!<)! | A8- | %27
w: ve!|||Sous|_ l'en- nui|mor-|* ne des ro-|seaux|
 A2 z2 z4 |"^avec gravité" =G8 |!<(! =G4 G4 | A6 A2 | _B6!<)! =d2 |!mf!!>(! (!tenuto!d8!>)! | %33
w: _|Seul|le re-|flet pro-|fond des|cho-|
 A2) z2 z2!p! D2 |[Q:1/4=118] _E8- | E2 z2 z2 _G2 |[Q:1/4=120]!<(!"^animez un peu" _B8- | %37
w: ses, des|lys,|_ des|pal-|
[Q:1/4=123] B2 _B2 A2 B2!<)! |[Q:1/4=126]!>(! =c8- |[Q:1/4=129] =c4-!>)! c2 z2 | %40
w: * mes et des|ro-|* ses|
[Q:1/4=100] z2"^retenu" (!tenuto!_e4 e !tenuto!e |!>(! (=c4 c) !tenuto!A !tenuto!^G !tenuto!A | %42
w: pleu- rent en-|co- * reau fond des|
[Q:1/4=96] _E4-!>)! E2) z2 |[Q:1/4=90] z8 ||[M:4/4][Q:1/4=80]"^Plus lent" z2!pp!!pp! A2 A3 A | %45
w: eaux _||Les fleurs s'ef-|
 ^G4- G2 G G |!>(! F4!>)! F2 z2 | z2 E2 E2 E2 | D4!<(! !tenuto!D2 !tenuto!D !tenuto!E!<)! | %49
w: feuil- lent une à|u- ne|sur le re-|flet du fir- ma-|
!mf! !tenuto!^C8- | C z!f!"^plus intense, gravement" !tenuto!C4 !tenuto!^D2 | %51
w: ment|_ Pour des-|
!>(! (!tenuto!E2!>)! E2)!<(! E !tenuto!=D E F!<)! | =G4 G2 G A |!>(! _B4!>)! B2 z2 | %54
w: cen- dre, é- ter- nel- le-|ment sous l'eau du|son- ge|
 z2 (!tenuto!=c2"^à l'aise" !tenuto!d2!>(! !tenuto!e2!>)! |!pp!!>(! !tenuto!f8-!>)! | f2) z2 z4 | %57
w: et dans la|lu-|ne|
 z8 | z8 |] %59
w: ||
V:2
 x8 | x8 | x8 | x8 | x8 | x8 | x8 | x8 | x8 | x8 | x8 | x8 | x8 | x8 | x8 | x8 | x8 | x8 | x8 | %19
 x8 | x8 | x8 | x8 | x8 | x8 | x8 | x8 | x8 | x8 | x8 | x8 | x8 | x8 | x8 | x8 | x8 | x8 | x8 | %38
 x8 | x8 | x8 | x8 | x8 | x8 ||[M:4/4] x8 | x8 | x8 | x8 | x8 | x8 | x8 | x8 | x8 | x8 | %54
 x2 =C2 D2 E2 | F8- | F2 x2 x4 | x8 | x8 |] %59
V:3
 x8 | x8 | x8 | x8 | x8 | x8 | x8 | x8 | x8 | x8 | x8 | x8 | x8 | x8 | x8 | x8 | x8 | z8 | x8 | %19
 x8 | z4"^douloureux" (!>!e4-!mf! | e4 c4 | B2) z2 x4 | x8 | x8 | x8 | x8 | x8 | x8 | x8 | x8 | %31
 x8 | x8 | x8 | x8 | x8 |"^animez un peu" x8 | x8 | x8 | x8 | %40
!f! (!tenuto![=c=c']2"_retenu" !tenuto![cc']4 !tenuto![cc']2-) | %41
"_dim." [cc']2 (!tenuto![=c=c']4 !tenuto![cc']2-) | [cc']2 (!tenuto![=c=c']4 !tenuto![cc']2-) | %43
 [cc']2 (!tenuto![=c=c']4 !breath!!tenuto![cc']2) ||[M:4/4]!pp! ([Aca]c)(ca)!8va(! (ac'a'a)!8va)! | %45
 ([GBg]B)(Bg)!8va(! (gbg'g)!8va)! | ([FAf]A)(Af) (faf'f) | ([EGe]G)(Ge) (ege'e) | %48
 ([DFd]F)(Fd)!<(! (dfd'd)!<)! | %49
[K:bass]!mf! x2"_très effacé"!p!!>(![I:staff +1] (7:4:7(=G,,/_B,,/_D,/=F,/ =G,/_B,/_D/) (7:4:7(G,/B,/D/[I:staff -1][K:treble]=F/ =G/_B/_d/) (7:4:7(G/B/d/=f/ =g/_b/_d'/)!>)! | %50
"^m.g."!pp! =f'2 z2 z4 |[K:bass]!mf! !>![^F,=C=E^F]8 |[K:treble] !>![=G,=C_E=G]8 | %53
!mf! !>![_B,=C_G_B]8 |!mf!!>(! !>![=CF=c]8!>)! | z!pp!!8va(! (faf') (f'a'f''f')!8va)! | %56
 z!8va(! (faf') (f'a'f''f')!8va)! |!>(! x2"^très effacé" x2 x!8va(! x x2 | %58
 z2!>)!!8va)![I:staff +1] [F,,,F,,][I:staff -1] z z4!ppp! |] %59
V:4
!p!!ped! (F,,C,F,G,[I:staff -1] CFGc)!ped-up! | %1
!ped![I:staff +1] (F,,C,F,G,[I:staff -1] CFGc)!ped-up! | %2
!ped![I:staff +1] (F,,C,F,G,[I:staff -1] CFGc)!ped-up! | %3
!ped![I:staff +1] (F,,C,F,G,[I:staff -1] CFGc)!ped-up! | %4
!ped![I:staff +1] (!tenuto!F,,D,A,B,[I:staff -1] DABd)!ped-up! | %5
!ped![I:staff +1] (F,,D,A,B,!<(![I:staff -1] DABd)!ped-up!!<)! | %6
!ped![I:staff +1] (!tenuto!F,,^D,A,B,[I:staff -1] ^DAB^d)!ped-up! | %7
!ped![I:staff +1] (F,,^D,A,B,[I:staff -1] ^DAB^d)!ped-up! | %8
!ped![I:staff +1] (!tenuto!F,,!tenuto!E,A,=C!>(![I:staff -1] EA=ce)!ped-up!!>)! | %9
!ped![I:staff +1] (!tenuto!F,,!tenuto!D,=G,B,[I:staff -1] D=GBd)!ped-up! | %10
!ped![I:staff +1] (!>!=F,,!tenuto!^C,=F,A,[I:staff -1] C=FAc)!ped-up! | %11
!ped![I:staff +1] (!tenuto!=F,,!tenuto!C,=F,A,[I:staff -1] C=FAc)!ped-up! | %12
!ped![I:staff +1] (!>!E,,B,,C,=G,!<(![I:staff -1] B,C=GB)!ped-up!!<)! | %13
!ped![I:staff +1] (!>!=C,,=G,,A,,_E, =G,A,[I:staff -1]_E=G)!ped-up! | %14
!ped![I:staff +1] (!>!=E,,B,,^C,=G,[I:staff -1] B,^C=GB)!ped-up! | %15
!ped![I:staff +1] (=G,,D,=F,A,[I:staff -1] B,=FAB)!ped-up! | %16
!ped![I:staff +1] (_B,,=F,_A,=C[I:staff -1] D_A=cd!ped-up! | e2)[I:staff +1] z2 z4 | %18
!ped! (^F,,^C,F,G,[I:staff -1] CFGc)!ped-up! | %19
!ped![I:staff +1] (F,,C,F,G,[I:staff -1] CFGc)!ped-up! | %20
!ped![I:staff +1] (F,,C,F,G,[I:staff -1] CFGc) |[I:staff +1] (F,,C,F,G,[I:staff -1] CFGc)!ped-up! | %22
!ped![I:staff +1] (F,,D,=G,B,[I:staff -1] D=GAB) | %23
[I:staff +1] (F,,D,=G,B,[I:staff -1] D=GAB)!ped-up! | %24
!ped![I:staff +1] (F,,^D,^G,^B,[I:staff -1] ^D^G^A^B) | %25
!<(![I:staff +1] (F,,^D,G,^B,[I:staff -1] ^DG!<)!^A^B)!ped-up! | %26
!ped![I:staff +1] (F,,C,F,=A,[I:staff -1] CF=Ac) | %27
[I:staff +1] (F,,C,F,A,[I:staff -1] CFAc)!ped-up! | %28
[I:staff +1] (!tenuto!F,,!tenuto!=D,=G,B,[I:staff -1] D=GAB) | %29
[I:staff +1] (!tenuto!F,,!tenuto!D,=G,B,!<(![I:staff -1] D=GAB) | %30
[I:staff +1] (!tenuto!F,,!tenuto!E,A,!<)!C[I:staff -1] EABc) | %31
!<(![I:staff +1] (!tenuto!^F,,!tenuto!=F,_B,!<)!D[I:staff -1] =F_B=cd) | %32
!mf![I:staff +1] (!>!^F,A,DF[I:staff -1] Adfa) |[I:staff +1] (F,A,DF!>(![I:staff -1] Adfa)!>)! | %34
!p![I:staff +1] (=F,,=C,_E,_G, A,[I:staff -1]_E_GA) | %35
[I:staff +1] (=F,,=C,_E,_G,!<(! A,[I:staff -1]_E_GA)!<)! | %36
[I:staff +1] (!tenuto!_E,,_B,,=C,_G, _B,=C!<(![I:staff -1]_G_B) | %37
[I:staff +1] (_E,,_B,,=C,_G,!<)! _B,=C[I:staff -1]_G_B) | %38
[I:staff +1] (!tenuto!D,,=C,^F,G,!<(![I:staff -1] =C_E^FA)!<)! | %39
!<(![I:staff +1] (D,=C[I:staff -1]^FA =c_e^fa)!<)! |[I:staff +1] z8 | z8 | z8 | z8 || %44
[M:4/4][K:treble]!pp!"_en peu en dehors"!ped! (.[Cc] .[Dd]2 .[Ee]2 .[Ff]2 .[Gg])!ped-up! | %45
!ped! (.[Cc] .[Dd]2 .[Ee]2 .[Ff]2 .[Gg])!ped-up! | %46
!ped! (.[Cc] .[Dd]2 .[Ee]2 .[Ff]2 .[Gg])!ped-up! | %47
!ped! (.[Cc] .[Dd]2 .[Ee]2 .[Ff]2 .[Gg])!ped-up! | %48
!ped! (.[Cc] .[Dd]2 .[Ee]2 .[Ff]2 .[Gg])!ped-up! |[K:bass] x8 | z8 | !>![=A,,=E,]8 | %52
 !>![=G,,=C,_E,]8 | !>![_E,,_B,,=C,_G,]8 | [=D,=A,]8 | !tenuto![E,A,]8[K:treble] | %56
[K:bass] !tenuto![=D,A,]8[K:treble] | %57
[K:bass] z2 (C,/4F,/4A,/4C/4[I:staff -1]F/4A/4c/4f/4)[I:staff +1][K:treble] (C/4F/4A/4c/4!8va(![I:staff -1]f/4a/4c'/4f'/4)!8va)![I:staff +1] (7:8:7(c/4f/4a/4c'/4!8va(![I:staff -1]f'/4a'/4c''/4 | %58
[I:staff +1][K:bass][I:staff -1] f'')!8va)![I:staff +1] z z2 z4 |] %59
V:5
 x8 | x8 | x8 | x8 | x8 | x8 | x8 | x8 | x8 | x8 | x8 | x8 | x8 | x8 | x8 | x8 | x8 | x8 | x8 | %19
 x8 | x8 | x8 | x8 | x8 | x8 | x8 | x8 | x8 | x8 | x8 | x8 | %31
 x31/4 x/8{/!tenuto![^F,,,^F,,]-} x/8- | [F,,,F,,]8 | x8 | x8 | x8 | x8 | x8 | x8 | x8 | x8 | x8 | %42
 x8 | x8 ||[M:4/4][K:treble] x8 | x8 | x8 | x8 | x8 |[K:bass] !tenuto![_B,,,=F,,_B,,]8 | x8 | x8 | %52
 x8 | x8 |{/!>![D,,,D,,]-} [D,,,D,,]8 |{/!tenuto![F,,,F,,]-} [F,,,F,,]8[K:treble] | %56
[K:bass]{/!tenuto![F,,,F,,]-} [F,,,F,,]8[K:treble] |[K:bass] [F,,,F,,]8[K:treble]!8va(! | %58
[K:bass] x!8va)! x7 |] %59
V:6
 x8 | x8 | x8 | x8 | x8 | x8 | x8 | x8 | x8 | x8 | x8 | x8 | x8 | x8 | x8 | x8 | x8 | x8 | x8 | %19
 x8 | x8 | x8 | x8 | x8 | x8 | x8 | x8 | x8 | x8 | x8 | x8 | x8 | x8 | x8 | x8 | x8 | x8 | x8 | %38
 x8 | x8 | x8 | x8 | x8 | x8 ||[M:4/4] x4!8va(! x4!8va)! | x4!8va(! x4!8va)! | x8 | x8 | x8 | %49
[K:bass] !tenuto![_D,=F,_B,_D]8[K:treble] | x8 |[K:bass] x8 |[K:treble] x8 | x8 | x8 | %55
 !tenuto![^CF]8 | !tenuto![=DF]8 | x5!8va(! x3 | x2!8va)! x6 |] %59
V:7
 x8 | x8 | x8 | x8 | x8 | x8 | x8 | x8 | x8 | x8 | x8 | x8 | x8 | x8 | x8 | x8 | x8 | x8 | x8 | %19
 x8 | x8 | x8 | x8 | x8 | x8 | x8 | x8 | x8 | x8 | x8 | x8 | x8 | x8 | x8 | x8 | x8 | x8 | x8 | %38
 x8 | x8 | x8 | x8 | x8 | x8 ||[M:4/4][K:treble] x8 | x8 | x8 | x8 | x8 |[K:bass] x8 | x8 | x8 | %52
 x8 | x8 | x8 | z[K:treble]!pp! (.[Dd]2 .[Ee]2 .[Ff]2 [Gg]-) | %56
[K:bass] (9:8:2x/8[K:treble] [Gg] (.[Ff]2 .[Ee]2 .[Dd]2 (([Cc]) | %57
[K:bass][I:staff -1] [Cc]4))[K:treble][I:staff +1] x4!8va(! |[K:bass] x!8va)! x7 |] %59

